svg/u1f4ef.svg

<svg viewBox="0 0 128 128" xmlns="http://www.w3.org/2000/svg">
  <g>
    <circle cx="55.49" cy="49.42" r="27.92" fill="none" stroke="#E2A610" stroke-width="8.4791" stroke-miterlimit="10"/>
    <path d="M13.43,47.58l-1.64-4.17c-0.68-1.66-2.46-1.47-3.58-0.83c-0.62,0.35-3.18,2.49-3.97,5.13 c-0.46,1.55-0.31,2.71,1.03,3.08l4.59,1.27l0.47-0.57l-0.47,0.6L35.7,74.67l4.01-7.3L13.43,47.58z" fill="#E2A610"/>
    <path d="M68.07,93.25 c-4.47-6.73-6.4-13.91-7.32-18.07" fill="none" stroke="#B51616" stroke-width="3.2496" stroke-miterlimit="10"/>
    <path d="M65.91,95.18c0.48,2.2,1.6,2.82,2.71,3.4c1.13,0.59,1.18,3.73,1.98,6.48 c0.76,2.6,1.57,5.76,3.67,7.45c1.01,0.89,5.18-1.43,6.91-3.78c0.67-0.92,2.83-5.18,0.97-5.86c-2.97-1.09-7.64-4.76-8.7-5.98 c-1.44-1.66-0.4-2.92-2.13-4.65C69.05,89.96,65.37,92.66,65.91,95.18z" fill="#B51616"/>
    <path d="M37.85,96.87 c5.26-6.61,9.87-13.18,10.88-21.74" fill="none" stroke="#F44336" stroke-width="3.2496" stroke-miterlimit="10"/>
    <path d="M38.74,92.06c-1.25,0.1-2.44,0.87-3.06,1.98c-0.32,0.57-0.44,1.75-0.84,2.26 c-0.34,0.43-0.83,0.69-1.93,1.04c-2.98,0.95-6.8,2.3-8.16,4.74l9.19,9.53c2.23-2.57,3.89-5.65,4.81-8.93 c0.27-0.96,0.49-1.96,1.09-2.76c0.45-0.61,1.09-1.05,1.57-1.63C43.49,95.84,42.2,91.79,38.74,92.06z" fill="#F44336"/>
    <path d="M30.69,105.29c2.2,2.59,3.93,4.95,3.49,6.05c-0.2,0.49-0.88,0.77-2.38,0.55 c-0.52-0.07-2.6-0.8-4.87-3.51c-2.73-3.26-3.29-6.35-1.46-6.67C26.87,101.47,28.5,102.7,30.69,105.29z" fill="#B51616"/>
    <path d="M37.05,75.68c-2.2-1.16-19.48-16.8-19.71-17.06c-0.02-0.03-0.05-0.05-0.06-0.08 c0.64,0.2,5.9,2.58,5.9,2.58s-0.96-3.63,0.28-5.87c0.12,0.02,0.48,0.31,0.48,0.43c0,0,0.1,2.72,3.73,8.87 C31.3,70.7,37.05,75.68,37.05,75.68z" fill="#9E740B"/>
    <path d="M32.25,32.79L32.25,32.79c-0.8-0.43-1.08-1.46-0.59-2.24c1.95-3.07,4.77-5.58,8.02-7.15 c0.82-0.39,1.8,0.02,2.11,0.89l0,0c0.28,0.76-0.06,1.61-0.79,1.96c-2.73,1.32-5.1,3.43-6.74,6.01 C33.83,32.93,32.96,33.17,32.25,32.79z" fill="#FFF59D"/>
    <path d="M75.54,36.73c0,0,3.89,5.61,3.63,13.05c-0.33,9.56-5.65,17.4-13.84,21.16c0,0,9.03-1.51,19.85-9.09 c0,0,1.58-3.66,2.11-7.46c0.03-0.21-0.25-0.3-0.34-0.11c-0.51,1.04-1.39,2.04-2.85,1.65c-2.08-0.56-2.6-3.75-2.68-5.74 c-0.19-4.53-1.78-8.66-3.14-10.81C76.84,37.11,75.84,36.52,75.54,36.73z" fill="#9E740B"/>
    <g>
      <path d="M115.21,47.89C107.83,36.1,99.28,28.71,96.1,31.38c-0.99,0.83-1.34,2.55-1.13,4.88l0,0 c0,0,0,0.01,0,0.01c0.01,0.09,0.03,0.19,0.04,0.27c0.31,2.57,1.93,22.39-20.26,31.28c0,0-10.74,4.46-19.77,5.25l0,8.51 c7.49-0.28,15.91-1.12,25.54-5c8.23-3.03,20.2-9.68,37.68-2.92c0.72,0.4,1.4,0.68,2.02,0.82c0,0,0,0,0,0l0,0 c1.05,0.25,1.94,0.14,2.59-0.41C125.99,71.4,122.59,59.68,115.21,47.89z" fill="#E2A610"/>
      <ellipse cx="110.53" cy="51.73" rx="3.43" ry="19.86" fill="#5D4037" transform="matrix(0.8504 -0.5262 0.5262 0.8504 -10.6841 65.8955)"/>
      <path d="M100.7,50.27c-0.76-0.85-2.28-3.03-3.19-5.91c-0.41-1.28-0.46-3,0.63-3.45s1.93,0.59,2.18,1.38 c0.65,2.09,1.72,4.78,2.78,6.92c0.32,0.65,1.26,1.94,0.55,2.6C102.94,52.46,102.03,51.77,100.7,50.27z" fill="#FFF59D"/>
    </g>
    <path d="M66.67,79.59c-1.24-2.48-1.35-5.25-1.33-8.1c0.01-1.2-0.96-2.26-2.15-2.18 c-2.38,0.15-2.03,2.37-2.03,2.42c-0.39-0.95-1.01-1.39-2-1.47c-1.08-0.1-2.06,0.61-2.3,1.63c-0.27-0.62-0.78-1.12-1.47-1.3 c-0.95-0.24-1.91,0.19-2.39,1c-0.17-0.62-0.62-1.17-1.26-1.43c-1.1-0.45-2.36,0.08-2.82,1.18c-0.05-0.71-0.39-1.37-1.04-1.78 c-1.01-0.63-2.54-0.04-3.17,0.97c-2.18,3.47-1.63,7.63-1.21,9.71c0.26,1.28,1.33,2.05,2.28,2.18c0.96,0.13,1.83-0.53,2.18-1.22 c0.03,0.24,0.34,2.67,2.24,2.62c1.41-0.04,2.24-1.07,2.51-2.01c0.04,0.19,0.79,2.39,2.56,2.4c1.77,0.01,2.34-1.12,2.65-2.03 c0.2,0.23,0.73,1.87,2.8,1.67c0.97-0.09,1.71-1.12,1.9-2.07c0.41,0.66,1.41,1.26,2.45,0.96C66.78,82.23,67.2,80.66,66.67,79.59z" fill="#F44336"/>
    <path d="M65.73,76.94c-0.08,0.96-0.05,2.4-0.72,2.71c-1.1,0.51-2.1-0.04-2.76-1.18 c-0.26-0.45-0.62-0.42-0.69,0.09c-0.13,0.99-0.27,1.98-0.9,2.21c-1.72,0.62-2.61-0.68-3.12-2.08c-0.17-0.49-0.65-0.34-0.76,0.16 c-0.26,1.16-0.55,2.24-1.58,2.27c-1.51,0.04-2.14-1.35-2.42-2.67c-0.11-0.52-0.53-0.48-0.7,0.02c-0.37,1.12-0.9,2.28-1.95,2.27 c-1.54-0.02-2-1.75-2.12-3.27c-0.04-0.55-0.5-0.6-0.73-0.11c-0.4,0.84-0.78,1.73-1.37,1.95c-1.38,0.54-2.22-0.86-2.49-2.15 c-0.11-0.52-0.19-1.16-0.27-1.9c-0.19,2-0.13,3.65,0.27,5.1c0.35,1.26,1.26,1.94,2.21,2.06c0.79,0.11,1.55-0.14,2.05-0.77 c0.13-0.16,0.29-0.05,0.33,0.11c0.2,0.79,0.74,1.98,2.14,2.06c1.25,0.08,1.97-0.67,2.37-1.44c0.07-0.14,0.27-0.13,0.33,0.01 c0.28,0.66,1.08,1.79,2.36,1.82c1.5,0.03,2.16-0.53,2.53-1.45c0.1-0.25,0.23-0.34,0.38-0.11c0.33,0.48,1.02,1.36,2.55,1.2 c1.06-0.11,1.6-0.95,1.86-1.74c0.04-0.13,0.16-0.16,0.25-0.06c0.48,0.54,1.41,0.94,2.33,0.8c1.76-0.27,2.16-2.06,1.63-3.13 C66.63,79.48,65.84,77.28,65.73,76.94z" fill="#B51616"/>
  </g>
</svg>

<svg viewBox="0 0 128 128" xmlns="http://www.w3.org/2000/svg">
  <defs/>
  <path d="M87.65,49.42 Q87.65,62.741 78.23,72.16 Q68.811,81.58 55.49,81.58 Q42.169,81.58 32.75,72.16 Q23.33,62.741 23.33,49.42 Q23.33,36.099 32.75,26.68 Q42.169,17.26 55.49,17.26 Q68.811,17.26 78.23,26.68 Q87.65,36.099 87.65,49.42 Z M79.17,49.42 Q79.17,39.611 72.235,32.675 Q65.299,25.74 55.49,25.74 Q45.681,25.74 38.745,32.675 Q31.81,39.611 31.81,49.42 Q31.81,59.229 38.745,66.165 Q45.681,73.1 55.49,73.1 Q65.299,73.1 72.235,66.165 Q79.17,59.229 79.17,49.42 Z" fill="#E2A610"/>
  <path d="M13.43,47.58 L11.79,43.41 C11.11,41.75 9.33,41.94 8.21,42.58 C7.59,42.93 5.03,45.07 4.24,47.71 C3.78,49.26 3.93,50.42 5.27,50.79 L9.86,52.06 L10.33,51.49 L9.86,52.09 L35.7,74.67 L39.71,67.37 L13.43,47.58 Z" fill="#E2A610"/>
  <path d="M66.717,94.149 Q61.566,86.394 59.164,75.531 L62.336,74.829 Q64.608,85.101 69.423,92.351 Z" fill="#B51616"/>
  <path d="M65.91,95.18 C66.39,97.38 67.51,98 68.62,98.58 C69.75,99.17 69.8,102.31 70.6,105.06 C71.36,107.66 72.17,110.82 74.27,112.51 C75.28,113.4 79.45,111.08 81.18,108.73 C81.85,107.81 84.01,103.55 82.15,102.87 C79.18,101.78 74.51,98.11 73.45,96.89 C72.01,95.23 73.05,93.97 71.32,92.24 C69.05,89.96 65.37,92.66 65.91,95.18 Z" fill="#B51616"/>
  <path d="M36.579,95.858 Q46.053,83.952 47.116,74.94 L50.344,75.32 Q49.172,85.252 39.121,97.882 Z" fill="#F44336"/>
  <path d="M38.74,92.06 C37.49,92.16 36.3,92.93 35.68,94.04 C35.36,94.61 35.24,95.79 34.84,96.3 C34.5,96.73 34.01,96.99 32.91,97.34 C29.93,98.29 26.11,99.64 24.75,102.08 L33.94,111.61 C36.17,109.04 37.83,105.96 38.75,102.68 C39.02,101.72 39.24,100.72 39.84,99.92 C40.29,99.31 40.93,98.87 41.41,98.29 C43.49,95.84 42.2,91.79 38.74,92.06 Z" fill="#F44336"/>
  <path d="M30.69,105.29 C32.89,107.88 34.62,110.24 34.18,111.34 C33.98,111.83 33.3,112.11 31.8,111.89 C31.28,111.82 29.2,111.09 26.93,108.38 C24.2,105.12 23.64,102.03 25.47,101.71 C26.87,101.47 28.5,102.7 30.69,105.29 Z" fill="#B51616"/>
  <path d="M37.05,75.68 C34.85,74.52 17.57,58.88 17.34,58.62 C17.32,58.59 17.29,58.57 17.28,58.54 C17.92,58.74 23.18,61.12 23.18,61.12 C23.18,61.12 22.22,57.49 23.46,55.25 C23.58,55.27 23.94,55.56 23.94,55.68 C23.94,55.68 24.04,58.4 27.67,64.55 C31.3,70.7 37.05,75.68 37.05,75.68 Z" fill="#9E740B"/>
  <path d="M32.25,32.79 L32.25,32.79 C31.45,32.36 31.17,31.33 31.66,30.55 C33.61,27.48 36.43,24.97 39.68,23.4 C40.5,23.01 41.48,23.42 41.79,24.29 L41.79,24.29 C42.07,25.05 41.73,25.9 41,26.25 C38.27,27.57 35.9,29.68 34.26,32.26 C33.83,32.93 32.96,33.17 32.25,32.79 Z" fill="#FFF59D"/>
  <path d="M75.54,36.73 C75.54,36.73 79.43,42.34 79.17,49.78 C78.84,59.34 73.52,67.18 65.33,70.94 C65.33,70.94 74.36,69.43 85.18,61.85 C85.18,61.85 86.76,58.19 87.29,54.39 C87.32,54.18 87.04,54.09 86.95,54.28 C86.44,55.32 85.56,56.32 84.1,55.93 C82.02,55.37 81.5,52.18 81.42,50.19 C81.23,45.66 79.64,41.53 78.28,39.38 C76.84,37.11 75.84,36.52 75.54,36.73 Z" fill="#9E740B"/>
  <path d="M115.21,47.89 C107.83,36.1 99.28,28.71 96.1,31.38 C95.11,32.21 94.76,33.93 94.97,36.26 L94.97,36.26 C94.97,36.26 94.97,36.27 94.97,36.27 C94.98,36.36 95,36.46 95.01,36.54 C95.32,39.11 96.94,58.93 74.75,67.82 C74.75,67.82 64.01,72.28 54.98,73.07 L54.98,81.58 C62.47,81.3 70.89,80.46 80.52,76.58 C88.75,73.55 100.72,66.9 118.2,73.66 C118.92,74.06 119.6,74.34 120.22,74.48 C120.22,74.48 120.22,74.48 120.22,74.48 L120.22,74.48 C121.27,74.73 122.16,74.62 122.81,74.07 C125.99,71.4 122.59,59.68 115.21,47.89 Z" fill="#E2A610"/>
  <path d="M113.448,49.921 C119.219,59.248 122.592,67.618 120.981,68.615 C119.37,69.612 113.386,62.858 107.614,53.531 C101.843,44.203 98.47,35.834 100.081,34.837 C101.692,33.84 107.676,40.593 113.448,49.921 Z" fill="#5D4037"/>
  <path d="M100.7,50.27 C99.94,49.42 98.42,47.24 97.51,44.36 C97.1,43.08 97.05,41.36 98.14,40.91 C99.23,40.46 100.07,41.5 100.32,42.29 C100.97,44.38 102.04,47.07 103.1,49.21 C103.42,49.86 104.36,51.15 103.65,51.81 C102.94,52.46 102.03,51.77 100.7,50.27 Z" fill="#FFF59D"/>
  <path d="M66.67,79.59 C65.43,77.11 65.32,74.34 65.34,71.49 C65.35,70.29 64.38,69.23 63.19,69.31 C60.81,69.46 61.16,71.68 61.16,71.73 C60.77,70.78 60.15,70.34 59.16,70.26 C58.08,70.16 57.1,70.87 56.86,71.89 C56.59,71.27 56.08,70.77 55.39,70.59 C54.44,70.35 53.48,70.78 53,71.59 C52.83,70.97 52.38,70.42 51.74,70.16 C50.64,69.71 49.38,70.24 48.92,71.34 C48.87,70.63 48.53,69.97 47.88,69.56 C46.87,68.93 45.34,69.52 44.71,70.53 C42.53,74 43.08,78.16 43.5,80.24 C43.76,81.52 44.83,82.29 45.78,82.42 C46.74,82.55 47.61,81.89 47.96,81.2 C47.99,81.44 48.3,83.87 50.2,83.82 C51.61,83.78 52.44,82.75 52.71,81.81 C52.75,82 53.5,84.2 55.27,84.21 C57.04,84.22 57.61,83.09 57.92,82.18 C58.12,82.41 58.65,84.05 60.72,83.85 C61.69,83.76 62.43,82.73 62.62,81.78 C63.03,82.44 64.03,83.04 65.07,82.74 C66.78,82.23 67.2,80.66 66.67,79.59 Z" fill="#F44336"/>
  <path d="M65.73,76.94 C65.65,77.9 65.68,79.34 65.01,79.65 C63.91,80.16 62.91,79.61 62.25,78.47 C61.99,78.02 61.63,78.05 61.56,78.56 C61.43,79.55 61.29,80.54 60.66,80.77 C58.94,81.39 58.05,80.09 57.54,78.69 C57.37,78.2 56.89,78.35 56.78,78.85 C56.52,80.01 56.23,81.09 55.2,81.12 C53.69,81.16 53.06,79.77 52.78,78.45 C52.67,77.93 52.25,77.97 52.08,78.47 C51.71,79.59 51.18,80.75 50.13,80.74 C48.59,80.72 48.13,78.99 48.01,77.47 C47.97,76.92 47.51,76.87 47.28,77.36 C46.88,78.2 46.5,79.09 45.91,79.31 C44.53,79.85 43.69,78.45 43.42,77.16 C43.31,76.64 43.23,76 43.15,75.26 C42.96,77.26 43.02,78.91 43.42,80.36 C43.77,81.62 44.68,82.3 45.63,82.42 C46.42,82.53 47.18,82.28 47.68,81.65 C47.81,81.49 47.97,81.6 48.01,81.76 C48.21,82.55 48.75,83.74 50.15,83.82 C51.4,83.9 52.12,83.15 52.52,82.38 C52.59,82.24 52.79,82.25 52.85,82.39 C53.13,83.05 53.93,84.18 55.21,84.21 C56.71,84.24 57.37,83.68 57.74,82.76 C57.84,82.51 57.97,82.42 58.12,82.65 C58.45,83.13 59.14,84.01 60.67,83.85 C61.73,83.74 62.27,82.9 62.53,82.11 C62.57,81.98 62.69,81.95 62.78,82.05 C63.26,82.59 64.19,82.99 65.11,82.85 C66.87,82.58 67.27,80.79 66.74,79.72 C66.63,79.48 65.84,77.28 65.73,76.94 Z" fill="#B51616"/>
</svg>
